X:453
T:How Sweet in the Woodlands.2voices RH.454
R:air
S:Rev.R.Harrison’s MS,c1815,Cumbria
O:England
A:Temple Sowerby,Cumbria
Z:vmp.Simon Wilson. Review PJH, 2008.
M:3/4
L:1/8
Q:3/4=50
K:G
[V:1]|:D2|G2(BA)(BA)|G2G2A2|B2(dc)(dc)|{c}B4 Bc|d2eded|cde2zc|B2dcdB|{B}A4:|
[V:2]|:z2|z6|z2z2D2|G2(BA)(BA)|{A}G4AA|B2cBcB|ABc2zA|G2BAAG|{G}D4:|
%
[V:1]|:B2|A2(AB)(AB)|c2c2dc|B2Bded|d4 B2|(A3/G/4A/4)G2c2|(B3/A/4B/4)A2fd|
[V:2]|:G2|D2D2DG|A2A2BA|G2GBcB|B4G2|D2B,2A2|(G3/F/4G/4)F2B2|
%
[V:1] c2B2d/c/B/A/|G4zd|e2c2zc|B2ABcd|(f/e/)(d/c/)B2A2|G4|]
[V:2] A2G2D2|B,4zB|c2A2zA|G2FGAB|cB/A/G2D2|B,4|]

